src/About/images/error.svg

<?xml version="1.0" encoding="UTF-8"?>
<svg enable-background="new 0 0 477.141 477.141" version="1.1" viewBox="0 0 477.14 477.14" xml:space="preserve" xmlns="http://www.w3.org/2000/svg">
    <path d="m304.59 238.57 148.9-148.9c18.231-18.231 18.231-47.789 0-66.019s-47.789-18.231-66.019 0l-148.9 148.9-148.9-148.9c-18.231-18.231-47.789-18.231-66.019 0s-18.231 47.789 0 66.019l148.9 148.9-148.9 148.9c-18.231 18.231-18.231 47.789 0 66.019s47.789 18.231 66.019 0l148.9-148.9 148.9 148.9c18.231 18.231 47.789 18.231 66.019 0s18.231-47.789 0-66.019l-148.9-148.9z" fill="#50A5DC"/>
    <path d="m56.657 477.14c-14.515 0-29.03-5.525-40.081-16.575-22.101-22.101-22.101-58.062 0-80.162l141.83-141.83-141.83-141.83c-22.1-22.101-22.1-58.061 0-80.162 22.102-22.101 58.062-22.099 80.162 0l141.83 141.83 141.83-141.83c22.1-22.099 58.061-22.1 80.162 0 22.101 22.101 22.101 58.062 0 80.162l-141.83 141.83 141.83 141.83c22.1 22.101 22.1 58.061 0 80.162-22.102 22.102-58.062 22.1-80.162 0l-141.83-141.83-141.83 141.83c-11.05 11.05-25.565 16.575-40.081 16.575zm0-457.15c-9.395 0-18.787 3.575-25.939 10.727-14.302 14.303-14.302 37.575 0 51.877l148.9 148.9c3.905 3.905 3.905 10.237 0 14.143l-148.9 148.9c-14.303 14.302-14.303 37.574 0 51.877 14.303 14.302 37.576 14.302 51.877 0l148.9-148.9c3.905-3.905 10.237-3.905 14.143 0l148.9 148.9c14.303 14.303 37.575 14.304 51.877 0 14.302-14.303 14.302-37.575 0-51.877l-148.9-148.9c-3.905-3.905-3.905-10.237 0-14.143l148.9-148.9c14.303-14.302 14.303-37.574 0-51.877-14.303-14.302-37.575-14.302-51.877 0l-148.9 148.9c-3.905 3.905-10.237 3.905-14.143 0l-148.9-148.9c-7.151-7.15-16.546-10.727-25.939-10.727z"/>
    <path d="m266.07 204.57c-2.559 0-5.119-0.976-7.071-2.929-3.905-3.905-3.905-10.237 0-14.143l87.5-87.5c3.905-3.905 10.237-3.905 14.143 0s3.905 10.237 0 14.143l-87.5 87.5c-1.954 1.953-4.513 2.929-7.072 2.929z"/>
    <path d="m382.07 88.569c-2.559 0-5.119-0.977-7.071-2.929-3.905-3.905-3.905-10.237 0-14.143l28.75-28.75c3.905-3.904 10.237-3.904 14.143 0 3.905 3.905 3.905 10.237 0 14.143l-28.75 28.75c-1.954 1.953-4.513 2.929-7.072 2.929z"/>
</svg>

<?xml version="1.0" encoding="iso-8859-1"?>
<svg version="1.1" id="Layer_1" xmlns="http://www.w3.org/2000/svg" xmlns:xlink="http://www.w3.org/1999/xlink" x="0px" y="0px" viewBox="0 0 477.141 477.141" style="enable-background:new 0 0 477.141 477.141;" xml:space="preserve">
<g>
  <g>
    <path style="fill:#50A5DC;" d="M304.59,238.569L453.494,89.666c18.231-18.231,18.231-47.789,0-66.019s-47.789-18.231-66.019,0
      L238.571,172.55L89.667,23.646c-18.231-18.231-47.789-18.231-66.019,0s-18.231,47.789,0,66.019l148.903,148.904L23.647,387.473
      c-18.231,18.231-18.231,47.789,0,66.019s47.789,18.231,66.019,0l148.905-148.903l148.904,148.904
      c18.231,18.231,47.789,18.231,66.019,0s18.231-47.789,0-66.019L304.59,238.569z"/>
    <path d="M56.657,477.139c-14.515,0-29.03-5.525-40.081-16.575c-22.101-22.101-22.101-58.062,0-80.162l141.833-141.833
      L16.576,96.737c-22.1-22.101-22.1-58.061,0-80.162c22.102-22.101,58.062-22.099,80.162,0l141.833,141.833L380.403,16.575
      c22.1-22.099,58.061-22.1,80.162,0c22.101,22.101,22.101,58.062,0,80.162L318.732,238.569l141.833,141.833
      c22.1,22.101,22.1,58.061,0,80.162c-22.102,22.102-58.062,22.1-80.162,0L238.571,318.731L96.738,460.564
      C85.688,471.614,71.173,477.139,56.657,477.139z M56.657,19.99c-9.395,0-18.787,3.575-25.939,10.727
      c-14.302,14.303-14.302,37.575,0,51.877l148.903,148.904c3.905,3.905,3.905,10.237,0,14.143L30.719,394.545
      c-14.303,14.302-14.303,37.574,0,51.877c14.303,14.302,37.576,14.302,51.877,0L231.5,297.519c3.905-3.905,10.237-3.905,14.143,0
      l148.904,148.903c14.303,14.303,37.575,14.304,51.877,0c14.302-14.303,14.302-37.575,0-51.877L297.519,245.641
      c-3.905-3.905-3.905-10.237,0-14.143L446.423,82.594c14.303-14.302,14.303-37.574,0-51.877c-14.303-14.302-37.575-14.302-51.877,0
      L245.642,179.621c-3.905,3.905-10.237,3.905-14.143,0L82.596,30.717C75.445,23.567,66.05,19.99,56.657,19.99z"/>
  </g>
  <g>
    <path d="M266.071,204.569c-2.559,0-5.119-0.976-7.071-2.929c-3.905-3.905-3.905-10.237,0-14.143l87.5-87.5
      c3.905-3.905,10.237-3.905,14.143,0s3.905,10.237,0,14.143l-87.5,87.5C271.189,203.593,268.63,204.569,266.071,204.569z"/>
  </g>
  <g>
    <path d="M382.071,88.569c-2.559,0-5.119-0.977-7.071-2.929c-3.905-3.905-3.905-10.237,0-14.143l28.75-28.75
      c3.905-3.904,10.237-3.904,14.143,0c3.905,3.905,3.905,10.237,0,14.143l-28.75,28.75C387.189,87.593,384.63,88.569,382.071,88.569
      z"/>
  </g>
</g>
<g>
</g>
<g>
</g>
<g>
</g>
<g>
</g>
<g>
</g>
<g>
</g>
<g>
</g>
<g>
</g>
<g>
</g>
<g>
</g>
<g>
</g>
<g>
</g>
<g>
</g>
<g>
</g>
<g>
</g>
</svg>
